X:1
T:Title
%%score { 1 | 2 }
L:1/8
M:3/4
K:Eb
V:1 treble nm="Grand Piano"
V:2 bass 
V:1
 z2 z2[Q:1/4=100] E>G | B3 B c>B | G4 F>E | [DB]4 [DA]>[EG] |[M:2/4] [DF]4 |[M:1/4] E>G | %6
[M:3/4] B3 B c>B | G4 F>E | [DB]4 [DF]>[DG] |[M:2/4] E4 |[M:1/4] B>B | %11
[M:3/4] [DB]3 [EB] [FB]>[DB] | [EB]4 [Ge]>[Bd] | [Ac]3 [GB] [Ac]>[GB] |[M:2/4] [EG]4 | %15
[M:1/4] [Ge]>[Bd] |[M:3/4] [Ac]3 [GB] [Ac]>[GB] | G4 F>E | [DB]4 [DF]>[DG] |[M:2/4] E4 |] %20
V:2
 z2 z2 [E,G,B,]>[E,B,E] | [E,G,E]3 [E,G,E] [E,A,E]>[E,G,E] | [E,B,E]4 [E,A,E]>[E,G,] | %3
 [B,,F,]4 [B,,F,]>[B,,B,] |[M:2/4] [B,,B,]4 |[M:1/4] [E,G,]>[E,B,E] | %6
[M:3/4] [E,G,E]3 [E,G,E] [E,A,E]>[E,G,E] | [E,B,E]4 [E,A,E]>[E,G,] | [B,,F,]4 [B,,A,]>[B,,B,] | %9
[M:2/4] [E,G,]4 |[M:1/4] [E,G,E]>[E,G,E] |[M:3/4] [B,,F,]3 [B,,G,] [B,,A,]>[B,,F,] | %12
 [E,G,]4 [E,B,]>[E,E] | [E,E]3 [E,E] [E,E]>[E,E] |[M:2/4] [E,B,]4 |[M:1/4] [E,B,]>[E,E] | %16
[M:3/4] [E,E]3 [E,E] [E,E]>[E,E] | [E,B,E]4 [E,A,E]>[E,G,] | [B,,F,]4 [B,,A,]>[B,,B,] | %19
[M:2/4] [E,G,]4 |] %20

